public/images/icons8-trash.svg

<svg xmlns="http://www.w3.org/2000/svg" xmlns:xlink="http://www.w3.org/1999/xlink" viewBox="0,0,256,256" width="64px" height="64px" fill-rule="nonzero"><g fill-opacity="0.87059" fill="#ff0101" fill-rule="nonzero" stroke="none" stroke-width="1" stroke-linecap="butt" stroke-linejoin="miter" stroke-miterlimit="10" stroke-dasharray="" stroke-dashoffset="0" font-family="none" font-weight="none" font-size="none" text-anchor="none" style="mix-blend-mode: normal"><g transform="scale(4,4)"><path d="M28,6c-2.209,0 -4,1.791 -4,4v2h-0.40039l-13.59961,2v3h44v-3l-13.59961,-2h-0.40039v-2c0,-2.209 -1.791,-4 -4,-4zM28,10h8v2h-8zM12,19l2.70117,33.32227c0.168,2.077 1.90428,3.67773 3.98828,3.67773h26.62305c2.084,0 3.81733,-1.59878 3.98633,-3.67578l2.625,-32.32422zM20,26c1.105,0 2,0.895 2,2v23h-3l-1,-23c0,-1.105 0.895,-2 2,-2zM32,26c1.657,0 3,1.343 3,3v22h-6v-22c0,-1.657 1.343,-3 3,-3zM44,26c1.105,0 2,0.895 2,2l-1,23h-3v-23c0,-1.105 0.895,-2 2,-2z"></path></g></g></svg>

<svg fill="#228BE6" xmlns="http://www.w3.org/2000/svg"  viewBox="0 0 64 64" width="64px" height="64px"><path d="M 28 6 C 25.791 6 24 7.791 24 10 L 24 12 L 23.599609 12 L 10 14 L 10 17 L 54 17 L 54 14 L 40.400391 12 L 40 12 L 40 10 C 40 7.791 38.209 6 36 6 L 28 6 z M 28 10 L 36 10 L 36 12 L 28 12 L 28 10 z M 12 19 L 14.701172 52.322266 C 14.869172 54.399266 16.605453 56 18.689453 56 L 45.3125 56 C 47.3965 56 49.129828 54.401219 49.298828 52.324219 L 51.923828 20 L 12 19 z M 20 26 C 21.105 26 22 26.895 22 28 L 22 51 L 19 51 L 18 28 C 18 26.895 18.895 26 20 26 z M 32 26 C 33.657 26 35 27.343 35 29 L 35 51 L 29 51 L 29 29 C 29 27.343 30.343 26 32 26 z M 44 26 C 45.105 26 46 26.895 46 28 L 45 51 L 42 51 L 42 28 C 42 26.895 42.895 26 44 26 z"/></svg>
